www/assets/icons/insert_page_break.svg

<svg xmlns="http://www.w3.org/2000/svg" width="24" height="24" viewBox="0 0 24 24" fill='currentColor'><path d="M4 20c0 1.1.89 2 1.99 2H18c1.1 0 2-.9 2-2v-3H4zM20 8l-6-6H6c-1.1 0-1.99.9-1.99 2v7H20zm-7 1V3.5L18.5 9zm2 4H9v2h6zm8 0h-6v2h6zM7 13H1v2h6z"/></svg>

<svg width="24" height="24" viewBox="0 0 24 24" xmlns="http://www.w3.org/2000/svg" fill='currentColor'><path d="M4 20C4 21.1 4.89 22 5.99 22H18C19.1 22 20 21.1 20 20V17H4V20Z"/><path d="M20 8L14 2H6C4.9 2 4.01 2.9 4.01 4V11H20V8ZM13 9V3.5L18.5 9H13Z"/><path d="M15 13H9V15H15V13Z"/><path d="M23 13H17V15H23V13Z"/><path d="M7 13H1V15H7V13Z"/></svg>
